X: 6358
T: Casey's Pig
R: hornpipe
M: 4/4
K: Gmajor
|:[DG,]<[GG,]GD EDGB|dBgB A2 d2|D<GGD EDGD|E/F/G DB, G,2 G,2:|
|:gabg d2 df|gabg e2 ef|g<be<g d<gBG|1 AGAB [G2B2] [G2B2]:|2 AGAB G2 GE||

